svg/icon/jnt.svg

<svg xmlns="http://www.w3.org/2000/svg" xmlns:xlink="http://www.w3.org/1999/xlink" width="32" height="32" viewBox="0 0 32 32"><defs><linearGradient id="jnt-c" x1="50%" x2="50%" y1="0%" y2="100%"><stop offset="0%" stop-color="#FFF" stop-opacity=".5"/><stop offset="100%" stop-opacity=".5"/></linearGradient><circle id="jnt-b" cx="16" cy="15" r="15"/><filter id="jnt-a" width="111.7%" height="111.7%" x="-5.8%" y="-4.2%" filterUnits="objectBoundingBox"><feOffset dy=".5" in="SourceAlpha" result="shadowOffsetOuter1"/><feGaussianBlur in="shadowOffsetOuter1" result="shadowBlurOuter1" stdDeviation=".5"/><feComposite in="shadowBlurOuter1" in2="SourceAlpha" operator="out" result="shadowBlurOuter1"/><feColorMatrix in="shadowBlurOuter1" values="0 0 0 0 0 0 0 0 0 0 0 0 0 0 0 0 0 0 0.199473505 0"/></filter><path id="jnt-e" d="M16,25 C15.3522049,25.0000249 14.7159134,24.8258033 14.1555986,24.4949885 L8.85020846,21.3744633 C7.70708274,20.7011393 7.00229048,19.4598123 7,18.1157531 L7,11.8847029 C7.00466052,10.5412938 7.70881989,9.30108146 8.85020846,8.6259927 L14.1555986,5.50546746 C14.7187993,5.17489846 15.3574218,5.0005989 16.0075938,5.00000146 C16.6531228,4.99941677 17.2871445,5.17389147 17.8444014,5.50546746 L23.1502382,8.6259927 C24.2931921,9.29943188 24.9978019,10.5407373 25,11.8847029 L25,18.1157531 C24.9954322,19.459069 24.291455,20.6992599 23.1502382,21.3744633 L17.8444014,24.4949885 C17.2841031,24.8258435 16.6478007,25.000068 16,25 Z M12.9477367,18.571218 L11.9650089,19.5712406 C12.4809491,20.1034303 13.1869134,20.3999706 13.9215307,20.3930774 C15.4529116,20.3913244 16.6939807,19.1286174 16.69595,17.5702862 L16.69595,16.7179942 C17.1159862,16.965224 17.5927839,17.0950677 18.0780226,17.0943663 C18.8150048,17.1093215 19.5256491,16.8154593 20.0434783,16.2816207 L19.0607504,15.281598 C18.8007038,15.5479215 18.4469675,15.6976328 18.0780226,15.6975165 C17.3153367,15.6960158 16.6974247,15.0672294 16.69595,14.291121 L16.69595,9.59510556 L15.3138773,9.59510556 L15.3138773,17.5793773 C15.3138773,18.3576144 14.6939023,18.9885002 13.9291245,18.9885002 C13.5604508,18.9878926 13.2072353,18.8377067 12.9477367,18.571218 Z"/><filter id="jnt-d" width="119.4%" height="117.5%" x="-9.7%" y="-6.2%" filterUnits="objectBoundingBox"><feOffset dy=".5" in="SourceAlpha" result="shadowOffsetOuter1"/><feGaussianBlur in="shadowOffsetOuter1" result="shadowBlurOuter1" stdDeviation=".5"/><feColorMatrix in="shadowBlurOuter1" values="0 0 0 0 0 0 0 0 0 0 0 0 0 0 0 0 0 0 0.204257246 0"/></filter></defs><g fill="none" fill-rule="evenodd"><use fill="#000" filter="url(#jnt-a)" xlink:href="#jnt-b"/><use fill="#0050DB" xlink:href="#jnt-b"/><use fill="url(#jnt-c)" style="mix-blend-mode:soft-light" xlink:href="#jnt-b"/><circle cx="16" cy="15" r="14.5" stroke="#000" stroke-opacity=".097"/><g fill-rule="nonzero"><use fill="#000" filter="url(#jnt-d)" xlink:href="#jnt-e"/><use fill="#FFF" fill-rule="evenodd" xlink:href="#jnt-e"/></g></g></svg>

<svg xmlns="http://www.w3.org/2000/svg" xmlns:xlink="http://www.w3.org/1999/xlink" width="32" height="32" viewBox="0 0 32 32"><defs><linearGradient id="c" x1="50%" x2="50%" y1="0%" y2="100%"><stop offset="0%" stop-color="#FFF" stop-opacity=".5"/><stop offset="100%" stop-opacity=".5"/></linearGradient><circle id="b" cx="16" cy="15" r="15"/><filter id="a" width="111.7%" height="111.7%" x="-5.8%" y="-4.2%" filterUnits="objectBoundingBox"><feOffset dy=".5" in="SourceAlpha" result="shadowOffsetOuter1"/><feGaussianBlur in="shadowOffsetOuter1" result="shadowBlurOuter1" stdDeviation=".5"/><feComposite in="shadowBlurOuter1" in2="SourceAlpha" operator="out" result="shadowBlurOuter1"/><feColorMatrix in="shadowBlurOuter1" values="0 0 0 0 0 0 0 0 0 0 0 0 0 0 0 0 0 0 0.199473505 0"/></filter><path id="e" d="M16 25a3.626 3.626 0 0 1-1.844-.505l-5.306-3.12A3.785 3.785 0 0 1 7 18.114v-6.23a3.797 3.797 0 0 1 1.85-3.259l5.306-3.12A3.664 3.664 0 0 1 16.008 5c.645 0 1.28.174 1.836.505l5.306 3.121A3.785 3.785 0 0 1 25 11.885v6.23a3.797 3.797 0 0 1-1.85 3.26l-5.306 3.12c-.56.33-1.196.505-1.844.505zm-3.052-6.429l-.983 1a2.69 2.69 0 0 0 1.957.822c1.53-.002 2.772-1.264 2.774-2.823v-.852c.42.247.897.377 1.382.376a2.663 2.663 0 0 0 1.965-.812l-.982-1c-.26.266-.614.416-.983.416a1.397 1.397 0 0 1-1.382-1.407V9.595h-1.382v7.984c0 .779-.62 1.41-1.385 1.41a1.37 1.37 0 0 1-.981-.418z"/><filter id="d" width="119.4%" height="117.5%" x="-9.7%" y="-6.2%" filterUnits="objectBoundingBox"><feOffset dy=".5" in="SourceAlpha" result="shadowOffsetOuter1"/><feGaussianBlur in="shadowOffsetOuter1" result="shadowBlurOuter1" stdDeviation=".5"/><feColorMatrix in="shadowBlurOuter1" values="0 0 0 0 0 0 0 0 0 0 0 0 0 0 0 0 0 0 0.204257246 0"/></filter></defs><g fill="none" fill-rule="evenodd"><use fill="#000" filter="url(#a)" xlink:href="#b"/><use fill="#0050DB" xlink:href="#b"/><use fill="url(#c)" style="mix-blend-mode:soft-light" xlink:href="#b"/><circle cx="16" cy="15" r="14.5" stroke="#000" stroke-opacity=".097"/><g fill-rule="nonzero"><use fill="#000" filter="url(#d)" xlink:href="#e"/><use fill="#FFF" fill-rule="evenodd" xlink:href="#e"/></g></g></svg>
